X: 04068
T: NEW COTTAGE HORNPIPE
C: Bob McQuillen 5 Feb 80
B: Bob's Note Book 04 #68
R: hornpipe
Z: 2020 John Chambers <jc:trillian.mit.edu>
M: C
L: 1/8
K: D
A>F \
| D>FA>d B>Ad>e | f>dB>d A2F>E | D>FA>d B>Ad>f | e>de>f e2A>F |
| D>FA>d B>Ad>e | f>de>d B>Ad>e | f>af>a g>ec>d | e2d>c d2 :|
|: f>g \
| a>ba>f d>Ad>e | f2d>c d2f>e | d>fa>b a>fd>e | f2e>d e2f>e |
| d>ed>B A>Bd>e | d>Ad>f a>fd>f | g>fe>d c>de>f | e2d2 d2 :|
%%begintext align
%% For Kirsty and Nina Bain
%% of Newnham, England,
%% with many thanks for that
%% beautiful tune you sent to me.
%% I just love it.
%%endtext

%%sep 1 1 500

%%sep 1 1 500

